src/assets/icons/default/IconSearch.svg

<svg width="20" height="20" viewBox="0 0 24 24" fill="none" xmlns="http://www.w3.org/2000/svg">
<path d="M23.4317 20.6445L17.9139 15.0507C18.8514 13.5378 19.3955 11.7495 19.3955 9.83038C19.3955 4.40089 15.0535 0 9.69756 0C4.34164 0 0 4.40089 0 9.83038C0 15.2601 4.34143 19.6605 9.69756 19.6605C11.7579 19.6605 13.6662 19.0076 15.2365 17.8981L20.6886 23.4253C21.0675 23.8089 21.5641 24 22.0602 24C22.5568 24 23.0528 23.8089 23.4323 23.4253C24.1893 22.657 24.1893 21.4125 23.4317 20.6445ZM9.69756 16.4757C6.07744 16.4757 3.14247 13.5007 3.14247 9.83079C3.14247 6.16088 6.07744 3.18572 9.69756 3.18572C13.3179 3.18572 16.2526 6.16088 16.2526 9.83079C16.2526 13.5007 13.3179 16.4757 9.69756 16.4757Z" fill="#999999"/>
</svg>

<svg xmlns="http://www.w3.org/2000/svg" width="20" height="20" fill="none" viewBox="0 0 24 24">
  <path fill="#999" d="m23.43 20.64-5.52-5.59a10 10 0 0 0 1.49-5.22A9.76 9.76 0 0 0 9.7 0C4.34 0 0 4.4 0 9.83a9.76 9.76 0 0 0 9.7 9.83c2.06 0 3.97-.65 5.54-1.76l5.45 5.53a1.9 1.9 0 0 0 2.74 0 2 2 0 0 0 0-2.79M9.7 16.48a6.6 6.6 0 0 1-6.56-6.65A6.6 6.6 0 0 1 9.7 3.2a6.6 6.6 0 0 1 6.55 6.64 6.6 6.6 0 0 1-6.55 6.65"/>
</svg>
